X:1
T:Title
%%score { ( 1 4 ) | ( 2 3 ) }
L:1/8
Q:1/4=106
M:4/4
K:D
V:1 bass nm="Grand Piano"
V:4 bass 
V:2 bass 
V:3 bass 
V:1
 [F,D]2 E2[K:treble] F2 A2 | G2 F2 [A,F]2 E2 | E2 F2 [CG]2 [GB]2 | [FA]2 [EG]2 F4 | F2 G2 A2 F2 | %5
w: H.~H.~Lemmel * * *|||||
[M:9/8] G2 A- A B2 d3 |[M:4/4] [Ac]2 [GB]2 [A,DFA]2 [^G,D]2 | D2- [DE]2 D4 |] %8
w: |||
V:2
 z2 G,2 [D,D]2- [D,F,D]2 | [D,D]2- [D,A,D]2 z2 G,2 | G,2 z2 z4 | B,,2 C,2 [D,A,D]4 | %4
 [D,D]2[K:treble] [A,E]2 [DF]2 [CD]2 |[M:9/8] D2- [A,D]- [A,D] G2 B3 | %6
[M:4/4][K:bass] z2 G,2 A,,2 B,,2 | z2 G,2 [D,F,A,]4 |] %8
V:3
 D,4 A,2 z2 | B,2 z2 A,,4 | [A,C]2- [F,A,C]2 E,2 A,,2 | x8 | x2[K:treble] x6 | %5
[M:9/8] .B,3 z [G,D]2- [G,D]3 |[M:4/4][K:bass] G,,4 z4 | A,,4 z4 |] %8
V:4
 x4[K:treble] x4 | z4 C4 | z4 A,4 | A,4 z4 | x8 |[M:9/8] x9 |[M:4/4] x8 | [A,F]2 z2 z4 |] %8

